X: 030504
T: Connacht Reel
S: "Treoir" 
Z: B.Black
M: 4/4
L: 1/8
R: reel
K: D
Adcd BAFB | AF F2 DF F2 | Ad d2 Ad d2 | eB B2 eB B2 |
dcBA BAFB | AF F2 DF F2 | ABde f2 ec | dBAG FD D2 :|
a3 g f3 e | d3 A BAFB | Ad d2 Ad d2 | eB B2 eB B2 |
a3 g f3 e | d3 A BAFB | ABde f2 ec | dBAG FD D2 :|
